public/logos/Big Ben.svg

<svg version="1.1" id="Layer_1" xmlns="http://www.w3.org/2000/svg" xmlns:xlink="http://www.w3.org/1999/xlink" x="0px" y="0px"
	 width="100%" viewBox="0 0 736 1024" enable-background="new 0 0 736 1024" xml:space="preserve">
<path fill="#000000" opacity="1.000000" stroke="none" 
	d="
M162.862015,431.565460 
	C178.052048,430.458679 192.904068,430.050049 207.546204,432.569214 
	C217.377228,434.260620 222.970764,441.154205 225.234009,450.747101 
	C226.667923,456.824829 226.471909,463.019745 226.004532,469.143372 
	C225.501190,475.738220 221.408066,479.957184 214.010666,482.803986 
	C227.689789,487.544647 228.478821,497.958344 228.165527,508.881287 
	C228.003586,514.527710 228.562088,520.189941 227.488770,525.817444 
	C225.462646,536.440430 221.006744,541.410950 210.301941,541.914185 
	C195.180328,542.625122 180.007599,542.256775 164.856628,542.329956 
	C160.565674,542.350708 160.865906,539.256714 160.875931,536.362000 
	C160.950928,514.714233 161.035828,493.066467 161.080658,471.418610 
	C161.103073,460.594910 161.009079,449.770874 161.057419,438.947388 
	C161.068329,436.503662 160.653244,433.899933 162.862015,431.565460 
M198.948532,506.516541 
	C198.848938,503.527802 199.012146,500.499847 198.573532,497.561737 
	C198.160202,494.792847 196.157715,493.331726 193.269485,493.246857 
	C191.130798,493.184082 190.267593,494.326996 190.266632,496.316925 
	C190.263046,503.799225 190.213760,511.282135 190.293503,518.763611 
	C190.327560,521.958679 192.466766,522.273193 194.792587,521.312561 
	C197.274017,520.287659 198.651871,518.208191 198.763931,515.460510 
	C198.872330,512.803345 198.891586,510.142609 198.948532,506.516541 
M197.325806,472.613739 
	C200.142273,466.944672 199.055191,460.996399 198.219177,455.192780 
	C197.818909,452.414124 195.043915,451.282837 192.430222,451.631775 
	C189.643967,452.003723 190.382660,454.672913 190.314362,456.494873 
	C190.153305,460.791382 190.195312,465.097290 190.228638,469.398834 
	C190.271927,474.987030 191.556732,475.706970 197.325806,472.613739 
z"/>
<path fill="#000000" opacity="1.000000" stroke="none" 
	d="
M380.904694,528.986084 
	C380.948364,498.332977 380.979340,468.177612 381.046021,438.022369 
	C381.060883,431.290558 381.400909,430.945190 388.085510,430.951050 
	C398.906647,430.960571 409.714020,430.796234 420.539398,431.681274 
	C436.701508,433.002716 445.186432,441.309998 446.133179,457.747894 
	C446.314911,460.903168 446.224457,464.077271 446.181885,467.241638 
	C446.073853,475.267761 442.095184,480.373749 434.355957,482.449646 
	C434.489258,484.293915 436.010101,484.075287 436.912201,484.438324 
	C442.898163,486.847168 446.252197,491.399078 447.151855,497.574646 
	C448.574188,507.338074 448.797791,517.175476 447.116577,526.932556 
	C445.532745,536.124756 441.737457,539.961792 432.443909,541.429565 
	C420.703217,543.283875 408.833435,542.106934 397.022156,542.344543 
	C393.525208,542.414917 390.011902,542.132507 386.529724,542.365234 
	C382.106049,542.660889 380.455811,540.760925 380.855042,536.477966 
	C381.070618,534.165222 380.900818,531.816467 380.904694,528.986084 
M416.368683,494.062592 
	C410.960449,492.525146 410.311707,492.897003 410.264709,497.983765 
	C410.204895,504.460876 410.235870,510.939423 410.298767,517.416687 
	C410.315704,519.161316 409.868530,521.378906 412.468842,521.751160 
	C414.834534,522.089783 417.174316,521.200195 417.639557,518.842163 
	C419.240051,510.730103 420.256897,502.549438 416.368683,494.062592 
M410.272369,463.472809 
	C410.262634,465.620148 410.183075,467.770142 410.265228,469.913940 
	C410.331482,471.642731 409.779236,473.973633 412.257965,474.356842 
	C414.645050,474.725830 417.168030,474.018311 417.917664,471.418304 
	C419.493958,465.951263 419.417542,460.307587 418.172943,454.804718 
	C417.604065,452.289551 415.164978,451.321411 412.674652,451.480560 
	C409.580902,451.678284 410.514923,454.284515 410.360718,456.063690 
	C410.175873,458.196411 410.286407,460.354736 410.272369,463.472809 
z"/>
<path fill="#000000" opacity="1.000000" stroke="none" 
	d="
M542.694092,499.146027 
	C539.894043,497.254303 541.341614,499.994934 541.338623,500.315186 
	C541.227356,512.138977 541.234314,523.963745 541.205322,535.788391 
	C541.189270,542.336914 541.173340,542.333801 534.514893,542.382996 
	C530.357056,542.413696 526.179871,542.215759 522.046448,542.551941 
	C516.731873,542.984192 515.661621,540.407959 515.749329,535.690979 
	C515.997009,522.371765 515.862488,509.045319 515.866516,495.721710 
	C515.872375,476.402405 515.842529,457.083038 515.881836,437.763824 
	C515.894714,431.407471 516.442017,430.912964 522.684998,430.855438 
	C526.681763,430.818604 530.711243,431.157990 534.668091,430.756775 
	C539.746277,430.241913 541.609680,432.699554 542.917847,437.197235 
	C546.846497,450.704559 551.191956,464.090637 556.030334,477.376129 
	C556.030334,470.337677 556.025024,463.299225 556.031860,456.260773 
	C556.038147,449.765594 556.127808,443.269501 556.045776,436.775543 
	C555.994324,432.701965 557.450317,430.549377 561.902893,430.783813 
	C566.387207,431.019989 570.904175,431.032196 575.387390,430.786987 
	C580.315430,430.517395 581.150757,433.171448 581.136475,437.311279 
	C581.041809,464.791016 581.081604,492.271240 581.076355,519.751282 
	C581.075195,525.746826 581.030640,531.742737 581.080933,537.737854 
	C581.105774,540.707886 580.164062,542.452515 576.786255,542.382568 
	C570.626770,542.255066 564.461487,542.271362 558.301208,542.377625 
	C555.402832,542.427673 554.335754,541.038696 553.619751,538.373230 
	C550.124695,525.362061 546.416748,512.408020 542.694092,499.146027 
z"/>
<path fill="#000000" opacity="1.000000" stroke="none" 
	d="
M315.650208,502.670135 
	C307.920624,498.181274 311.261353,490.927460 310.675201,484.862915 
	C310.437988,482.408630 312.532471,481.990479 314.483154,481.981659 
	C322.815826,481.944031 331.148743,481.965118 339.481445,481.928162 
	C342.590546,481.914368 344.057953,483.387024 344.053406,486.497986 
	C344.028320,503.663879 344.007080,520.829834 344.051178,537.995605 
	C344.058685,540.924744 342.855621,542.332520 339.898499,542.267761 
	C337.733337,542.220337 335.565887,542.284668 333.399445,542.288513 
	C329.099945,542.296143 324.172699,543.482422 324.005554,536.865295 
	C323.005035,536.984802 322.549164,536.898682 322.382355,537.079346 
	C314.966919,545.111023 306.082458,547.057129 296.036255,543.082275 
	C285.112762,538.760254 278.688446,530.612244 278.049438,518.844543 
	C276.892853,497.546478 276.715149,476.201447 278.043762,454.911926 
	C278.930603,440.701843 288.623230,431.193207 303.533478,429.177521 
	C310.285767,428.264679 317.146606,428.148834 323.791473,430.551941 
	C334.030853,434.255035 340.457031,441.248535 342.572266,451.991669 
	C343.668976,457.561890 344.143616,463.197205 343.956909,468.891022 
	C343.863251,471.747620 342.669037,473.193542 339.713837,473.180939 
	C332.881226,473.151825 326.047913,473.170349 319.215515,473.235443 
	C316.035828,473.265747 314.735596,471.764618 314.789032,468.634766 
	C314.865814,464.137146 314.893616,459.628632 314.658356,455.139648 
	C314.520844,452.515961 314.276154,449.244263 310.584534,449.408081 
	C307.235382,449.556671 307.178802,452.556427 307.159851,455.099396 
	C307.062988,468.090637 306.983704,481.082184 306.954712,494.073730 
	C306.936554,502.220306 305.745178,510.364716 306.956085,518.516113 
	C307.351257,521.176086 307.353271,524.413391 310.848389,524.552551 
	C314.521698,524.698914 315.378357,521.371948 315.556763,518.585083 
	C315.886169,513.439514 315.681702,508.259796 315.650208,502.670135 
z"/>
<path fill="#000000" opacity="1.000000" stroke="none" 
	d="
M492.257507,473.972656 
	C507.410889,474.107605 505.194489,472.916351 505.258545,486.513977 
	C505.307648,496.946350 506.206665,496.166168 495.524109,496.229889 
	C487.973022,496.274902 487.848724,496.264496 488.069824,503.997559 
	C488.201782,508.613342 486.129913,514.319336 489.060913,517.564270 
	C492.097046,520.925659 497.899933,518.669312 502.468628,518.770203 
	C506.700134,518.863708 508.572174,520.343384 508.354736,524.700562 
	C508.130890,529.186890 508.251678,533.695129 508.348419,538.191101 
	C508.411804,541.135742 507.166534,542.417786 504.190247,542.404968 
	C490.196991,542.344604 476.203247,542.333252 462.210052,542.391052 
	C458.948090,542.404480 457.832489,540.860168 457.841309,537.787964 
	C457.938141,504.137360 458.000732,470.486664 458.026123,436.835968 
	C458.029297,432.655670 459.875183,430.839020 464.099396,430.869415 
	C476.592712,430.959351 489.088043,430.945129 501.580872,430.810211 
	C505.687378,430.765869 507.302246,432.525360 507.149078,436.527344 
	C506.983551,440.852814 507.023865,445.189453 507.090393,449.519440 
	C507.142456,452.906311 505.620361,454.346008 502.228912,454.217712 
	C498.569519,454.079285 494.899658,454.245758 491.235565,454.194305 
	C488.491608,454.155792 487.315216,455.431244 487.362183,458.149170 
	C487.428406,461.979248 487.488281,465.818024 487.304382,469.641205 
	C487.143707,472.981506 488.710907,474.174286 492.257507,473.972656 
z"/>
<path fill="#000000" opacity="1.000000" stroke="none" 
	d="
M262.630615,430.871277 
	C267.195740,431.115112 267.125793,434.115051 267.127747,437.019562 
	C267.138397,452.828583 267.134888,468.637634 267.128876,484.446655 
	C267.122375,501.586975 266.962524,518.729187 267.188477,535.866394 
	C267.253052,540.766235 265.922455,542.843750 260.725220,542.495422 
	C254.760849,542.095642 248.747009,542.282776 242.759964,542.430359 
	C239.275818,542.516235 237.584045,541.439819 237.594467,537.626648 
	C237.687332,503.678864 237.698380,469.730682 237.624023,435.782898 
	C237.615845,432.047516 239.181351,430.765259 242.699173,430.824310 
	C249.187408,430.933258 255.678787,430.855103 262.630615,430.871277 
z"/>
</svg>

<svg xmlns="http://www.w3.org/2000/svg" xml:space="preserve" viewBox="0 0 736 1024"><path d="M162.862 431.565c15.19-1.106 30.042-1.515 44.684 1.004 9.831 1.692 15.425 8.585 17.688 18.178 1.434 6.078 1.238 12.273.77 18.396-.503 6.595-4.596 10.814-11.993 13.661 13.679 4.74 14.468 15.154 14.155 26.077-.162 5.647.396 11.309-.677 16.936-2.026 10.623-6.482 15.594-17.187 16.097-15.122.711-30.294.343-45.445.416-4.291.02-3.991-3.073-3.981-5.968.075-21.648.16-43.296.205-64.943.022-10.824-.072-21.648-.024-32.472.011-2.443-.404-5.047 1.805-7.382m36.087 74.952c-.1-2.99.063-6.017-.375-8.955-.414-2.77-2.416-4.23-5.305-4.315-2.138-.063-3.001 1.08-3.002 3.07-.004 7.482-.053 14.965.027 22.447.034 3.195 2.173 3.51 4.499 2.549 2.481-1.025 3.859-3.105 3.97-5.852.11-2.658.129-5.318.186-8.944m-1.623-33.903c2.816-5.67 1.73-11.618.893-17.421-.4-2.779-3.175-3.91-5.789-3.561-2.786.372-2.047 3.04-2.116 4.863-.16 4.296-.119 8.602-.085 12.904.043 5.588 1.328 6.308 7.097 3.215M380.905 528.986c.043-30.653.074-60.808.141-90.964.015-6.731.355-7.077 7.04-7.07 10.82.009 21.628-.156 32.453.73 16.163 1.32 24.647 9.628 25.594 26.066.182 3.155.091 6.33.049 9.494-.108 8.026-4.087 13.132-11.826 15.208.133 1.844 1.654 1.625 2.556 1.988 5.986 2.41 9.34 6.961 10.24 13.137 1.422 9.763 1.646 19.6-.035 29.358-1.584 9.192-5.38 13.029-14.673 14.497-11.74 1.854-23.61.677-35.422.915-3.497.07-7.01-.212-10.492.02-4.424.296-6.074-1.604-5.675-5.887.216-2.313.046-4.662.05-7.492m35.464-34.923c-5.409-1.538-6.057-1.166-6.104 3.92-.06 6.478-.03 12.956.034 19.434.017 1.744-.43 3.962 2.17 4.334 2.366.339 4.705-.55 5.17-2.909 1.601-8.112 2.618-16.293-1.27-24.78m-6.097-30.59c-.01 2.148-.089 4.298-.007 6.442.066 1.729-.486 4.06 1.993 4.443 2.387.369 4.91-.339 5.66-2.939 1.576-5.467 1.5-11.11.255-16.613-.569-2.515-3.008-3.484-5.498-3.324-3.094.197-2.16 2.804-2.314 4.583-.185 2.132-.075 4.29-.089 7.409M542.694 499.146c-2.8-1.892-1.352.849-1.355 1.17-.112 11.823-.105 23.648-.134 35.472-.016 6.549-.032 6.546-6.69 6.595-4.158.03-8.335-.167-12.469.169-5.314.432-6.384-2.144-6.297-6.861.248-13.32.113-26.646.118-39.97.005-19.319-.024-38.638.015-57.957.013-6.357.56-6.851 6.803-6.909 3.997-.036 8.026.303 11.983-.098 5.078-.515 6.942 1.943 8.25 6.44 3.928 13.508 8.274 26.894 13.112 40.18 0-7.04-.005-14.078.002-21.116.006-6.495.096-12.991.014-19.485-.052-4.074 1.404-6.227 5.857-5.992 4.484.236 9.001.248 13.484.003 4.928-.27 5.764 2.384 5.75 6.524-.095 27.48-.055 54.96-.06 82.44-.002 5.996-.046 11.992.004 17.987.025 2.97-.917 4.715-4.295 4.645-6.16-.128-12.325-.112-18.485-.005-2.898.05-3.965-1.34-4.681-4.005-3.495-13.01-7.203-25.965-10.926-39.227M315.65 502.67c-7.73-4.489-4.389-11.743-4.975-17.807-.237-2.454 1.857-2.873 3.808-2.881 8.333-.038 16.666-.017 24.998-.054 3.11-.014 4.577 1.459 4.572 4.57-.025 17.166-.046 34.332-.002 51.498.008 2.929-1.195 4.337-4.153 4.272-2.165-.048-4.332.017-6.499.02-4.3.008-9.226 1.194-9.393-5.423-1.001.12-1.457.034-1.624.214-7.415 8.032-16.3 9.978-26.346 6.003-10.923-4.322-17.348-12.47-17.987-24.237-1.156-21.299-1.334-42.644-.005-63.933.887-14.21 10.58-23.719 25.49-25.734 6.752-.913 13.613-1.03 20.257 1.374 10.24 3.703 16.666 10.697 18.781 21.44a74.6 74.6 0 0 1 1.385 16.899c-.094 2.857-1.288 4.303-4.243 4.29q-10.25-.043-20.498.054c-3.18.03-4.48-1.47-4.427-4.6.077-4.498.105-9.006-.13-13.495-.138-2.624-.383-5.896-4.074-5.732-3.35.149-3.406 3.148-3.425 5.691a7460 7460 0 0 0-.205 38.975c-.018 8.146-1.21 16.29.001 24.442.395 2.66.397 5.897 3.892 6.037 3.674.146 4.53-3.181 4.709-5.968.33-5.145.125-10.325.093-15.915M492.258 473.973c15.153.135 12.936-1.057 13 12.541.05 10.432.949 9.652-9.734 9.716-7.551.045-7.675.034-7.454 7.768.132 4.615-1.94 10.321.99 13.566 3.037 3.362 8.84 1.105 13.409 1.206 4.231.094 6.103 1.573 5.886 5.93-.224 4.487-.103 8.995-.007 13.491.064 2.945-1.181 4.227-4.158 4.214-13.993-.06-27.987-.072-41.98-.014-3.262.013-4.378-1.53-4.369-4.603q.146-50.475.185-100.952c.003-4.18 1.85-5.997 6.073-5.967 12.494.09 24.989.076 37.482-.059 4.106-.044 5.721 1.715 5.568 5.717-.165 4.326-.125 8.662-.059 12.992.052 3.387-1.47 4.827-4.861 4.699-3.66-.139-7.33.028-10.993-.024-2.744-.038-3.92 1.237-3.874 3.955.066 3.83.126 7.669-.058 11.492-.16 3.34 1.407 4.533 4.954 4.332M262.63 430.871c4.566.244 4.496 3.244 4.498 6.149.01 15.809.007 31.618 0 47.427-.006 17.14-.165 34.282.06 51.42.065 4.9-1.266 6.977-6.463 6.628-5.964-.4-11.978-.212-17.965-.065-3.484.086-5.176-.99-5.166-4.803q.14-50.922.03-101.844c-.008-3.735 1.557-5.018 5.075-4.959 6.488.11 12.98.031 19.932.047"/></svg>
